assets/Telescope/Flat/telescope_flat.svg

<svg width="32" height="32" viewBox="0 0 32 32" fill="none" xmlns="http://www.w3.org/2000/svg">
<path d="M16.25 29.25C16.25 29.6642 15.9143 30 15.5 30C15.0858 30 14.75 29.6642 14.75 29.25V18.2847L6.35413 29.6945C6.10863 30.0281 5.63916 30.0996 5.30554 29.8541C4.97192 29.6086 4.90047 29.1391 5.14597 28.8055L13.8421 16.9877C13.3669 16.9119 13 16.4964 13 16C13 15.4505 13.4497 15 13.9983 15H14.75V11.75C14.75 11.3358 15.0858 11 15.5 11C15.9143 11 16.25 11.3358 16.25 11.75V15H17.0018C17.5504 15 18 15.4505 18 16C18 16.421 17.7361 16.7839 17.366 16.9306L26.1041 28.8055C26.3496 29.1391 26.2782 29.6086 25.9446 29.8541C25.6109 30.0996 25.1415 30.0281 24.896 29.6945L16.25 17.9449V29.25Z" fill="#7167A4"/>
<path d="M3.22683 4.27809C2.6088 5.92946 3.30622 7.78583 4.80973 8.60757L5.74923 8.95918L7.99999 8.00013L8.99999 4.00013L8.19939 2.40199L7.26328 2.05165C5.5897 1.68436 3.84485 2.62671 3.22683 4.27809Z" fill="#AEDDFF"/>
<path d="M22.8343 8.94678L27.5555 10.7137L29 13.0001L28 15.0001L25.7687 15.3837L21.0817 13.6296L20 10.5001L22.8343 8.94678Z" fill="#D3D3D3"/>
<path d="M8.59557 3.94216L11.9373 3.80078L23.1846 8.01009L20.731 14.566L9.48157 10.3559L7.48633 7.72365L8.59557 3.94216Z" fill="#BEBEBE"/>
<path d="M11.9459 3.80389L8.19965 2.40186L5.74609 8.95777L9.49233 10.3598L11.9459 3.80389Z" fill="#5235A6"/>
<path d="M29.39 11.4001L27.5169 10.6991L25.7644 15.3819L27.6375 16.0829C28.1547 16.2765 28.731 16.0141 28.9246 15.4969L29.9761 12.6872C30.1697 12.1699 29.9073 11.5937 29.39 11.4001Z" fill="#5235A6"/>
</svg>

<svg xmlns="http://www.w3.org/2000/svg" width="32" height="32" fill="none"><path fill="#7167A4" d="M16.25 29.25a.75.75 0 1 1-1.5 0V18.285l-8.396 11.41a.75.75 0 0 1-1.208-.89l8.696-11.817A1.004 1.004 0 0 1 13 16c0-.55.45-1 .998-1h.752v-3.25a.75.75 0 0 1 1.5 0V15h.752c.548 0 .998.45.998 1 0 .421-.264.784-.634.93l8.738 11.875a.75.75 0 1 1-1.208.89l-8.646-11.75V29.25Z"/><path fill="#AEDDFF" d="M3.227 4.278c-.618 1.651.08 3.508 1.583 4.33l.94.351L8 8l1-4-.8-1.598-.937-.35c-1.673-.368-3.418.575-4.036 2.226Z"/><path fill="#D3D3D3" d="m22.834 8.947 4.721 1.767L29 13l-1 2-2.231.384-4.687-1.754L20 10.5l2.834-1.553Z"/><path fill="#BEBEBE" d="m8.596 3.942 3.341-.141 11.248 4.21-2.454 6.555-11.25-4.21-1.995-2.632 1.11-3.782Z"/><path fill="#5235A6" d="M11.946 3.804 8.2 2.402 5.746 8.958l3.746 1.402 2.454-6.556ZM29.39 11.4l-1.873-.7-1.753 4.682 1.873.7a1 1 0 0 0 1.288-.585l1.051-2.81a1 1 0 0 0-.586-1.287Z"/></svg>
